X:1
T:O Herr, ich klag
T:Ludwich Senfl
T:Source : DDT 34---Leipzig---Breitkopf & Härtel---J.Wolf---1908. First print : Newe Deudsche Geistliche Gesenge---Wittemberg---G.Rhau---1544. Editor : André Vierendeels (07/08/17).
T:Nots : Original clefs : C1, C3, C4, F4 Original note values have been halved Editorial accidentals above the staff
T:O Herr, ich klag
T:©
T:©
T:©
T:©
C:Ludwich Senfl
Z:©
%%score [ 1 [ 2 3 ] 4 ]
L:1/8
Q:1/4=120
M:2/2
K:C
V:1 treble nm="Soprano" snm="S"
V:2 treble-8 nm="Tenor 1" snm="T 1"
V:3 treble-8 nm="Tenor 2" snm="T 2"
V:4 bass nm="Bass" snm="B"
V:1
 z8 | z4 B4- | B4 c4 | A4 B4 | E4 A4 | B4 G4 | A4 F4 | G6 E2 | F3 E FG A2- | A2 GF G4 | A8 | %11
w: |O|_ Herr,|ich klag,|dasz ich|mein Tag|so hab|ver- *|zehrt, _ dasz _ ich-|* * * mein|Tag|
 z4 G4 | A2 G4 F2 | G6 E2 | F2 E4 D2 | E3 F G2 C2 | D2 E2 F2 D2 | C2 E2 D4- | D4 z2 D2 | E2 F2 G4 | %20
w: so|hag _ ver-|zehrt, Töd-|* lich ver-|sehrt, _ _ Leib|un Seel _ _|_ be- schwert.|_ Dar-|um sich _|
 F4 z2 D2 | E2 F2 G2 A2 | B2 d4 c2 | B2 G2 A4 | G4 z2 B2 | d4 B2 d2- | dc B4 A2 | B4 A2 c2- | %28
w: mehrt dar-|um sich _ _|_ mehrt zu|dir _ mein|Stimm. Ach|Herr, ver- nimm;|_ _ _ ich|schrei, ich bitt,|
 cB A4 G2 | A2 A2 E2 F2 | G4 z2 F2 | A2 B2 c4 | B4 d3 c | B3 A G3 F | E2 D2 G4 | C2 c2 B4 | %36
w: _ _ _ ver-|zeih, ich bitt, ver-|zeih mein|Mis- se- tat,|ich bitt _|_ un Gnad _|_ und nicht|um _ Recht,|
 z2 B2 B2 B2 | c3 B AGFE | D2 D2 G4 | A4 B4 | E2 G2 F4 | E4 D2 G2 | F2 E4 D2 | E4 z2 G2 | %44
w: und nicht um|Recht, _ _ _ _ _|_ und nicht|um Recht.|Du bist mein|Herr und ich|dein- * *|Knecht, und|
 F2 E4 D2 | E8- | E8- | E8 |] %48
w: ich dein _|Knecht.|_||
V:2
 e8 | f4 d4 | e4 A4 | d4 G2 g2- | gfed c4 | d4 B4 | A2 c2 d4 | z2 d2 e3 c | c6 A2 | e4 z2 e2 | %10
w: O|Herr, ich|klag, dasz|ich mein Tag|_ _ _ _ _|so hab|_ ver- zehrt,|so hab _|_ ver-|zehrt, so|
 c4 f4 | e8 | e4 d4 | B4 G2 c2- | c2 B2 c2 BA | G2 c2 B2 e2 | d2 cB A2 B2 | G2 c2 A4 | B4 z2 B2 | %19
w: hab ver-|zehrt,|Töd- lich|ver- sehrt _|_ _ _ _ _|* * * Leib,|Seel _ _ _ _|_ _ be-|schwert. Dar-|
 A2 A2 G2 c2- | c2 d4 G2 | G2 A2 B2 A2 | d4 z2 A2 | B2 c2 A3 B | c2 B4 e2 | d2 B2 d4 | %26
w: um sich mehrt, dar-|* um sich|_ _ _ _|mehrt zu|dir mein Stimm. _|_ Ach Herr,|ver- * nimm;|
 z2 g2 e2 f2 | g2 d2 f2 d2 | z2 f2 d2 e2 | f2 c2 c2 A2 | B4 z4 | z4 z2 A2 | d3 c B3 A | %33
w: zu dir _|_ _ ich schrei,|ich bitt, ver-|zeih, ich bitt, ver|zeih|mein|Mis- * * se-|
 G3 F E2 D2 | G8 | z4 z2 g2 | e2 g2 gfed | c4 z2 f2 | fedc B4 | A2 c2 B2 G2 | c4 d4 | G8 | %42
w: tat, ich bitt um|Gnad|und|nicht um Recht _ , _|_ du|bist _ _ _ _|mein Herr _ und|ich dein|Knecht,|
 z4 z2 D2 | A6 G2 | A2 B2 c2 A2 | B2 G2 g3 f | e3 d c4 | B8 |] %48
w: du|bist mein|Herr _ _ _|_ und ich _|_ _ dein|Knecht.|
V:3
 z8 | z8 | z8 | z8 | z8 | B8 | c4 A4 | B4 E4 | A3 G AB c2- | c2 BA B2 B2 | A8 | z4 B4 | c4 A4 | %13
w: |||||O|Herr, ich|klag, dasz|ich _ _ _ _|_ _ _ _ mein|Tag|so|hab ver-|
 G4 E2 A2- | A2 G2 F2 F2 | E8 | z4 D4 | E4 F4 | G8 | z4 G4 | A4 B4 | c4 z2 c2 | B6 c2 | d2 e4 d2 | %24
w: zehrt, Töd- *|* * lich ver-|sehrt,|Leib,|Seel be|schwert.|Dar-|um sich|mehrt zu|dir _|_ _ mein|
 e8 | z4 B4 | d4 c4 | B4 z2 A2 | c4 B4 | A4 z2 A2 | E3 F G2 A2- | AG G4 F2 | G8 | z4 B4 | B4 B4 | %35
w: Stimm.|Ach|Herr, ver-|nimm; zu|dir ich|schrei, ich|bitt _ _ ver-||zeih|mein|Mis- se-|
 E4 G4 | G4 G4 | A8 | z4 G4 | c4 d4 | e4 A4 | c4 B4 | A4 G4 | c6 B2 | A2 G2 F4 | E8- | E8- | E8 |] %48
w: tat. Ich|bitt um|Gnad|und|nicht um|recht. du|bist mein|Herr und|ich _|_ _ dein|Knecht.|_||
V:4
 z8 | z8 | z8 | z4 E,4- | E,4 F,4 | D,4 E,4 | A,,4 D,2 D,2 | G,,4 C,4 | F,,4 F,4 | E,4 z2 E,2 | %10
w: |||O|_ Herr,|ich klag,|dasz ich mein|Tag so|hab ver-|zehrt, dasz|
 F,4 D,4 | C,2 A,,2 E,4 | C,4 D,4 | G,,4 z4 | z2 G,,2 A,,2 B,,2 | C,4 z2 A,,2 | B,,2 C,2 D,2 B,,2 | %17
w: ich mein|Tag so hab-|* ver-|zehrt,|töd- lich ver-|sehrt, töd-|lich ver- sehrt, Leib,|
 C,4 D,4 | G,,4 z2 B,,2 | C,2 D,2 E,4 | F,4 G,4 | C,2 F,2 E,2 F,2 | G,4 z2 A,2 | G,2 E,2 F,4 | %24
w: Seel be-|schwert. Dar-|um sich mehrt,|dar- um|sich _ _ _|mehrt zu|dir _ mein|
 E,8 | z4 G,4 | G,4 A,4 | G,4 z2 F,2 | F,4 G,4 | F,3 G, A,2 D,2 | G,3 F, E,2 D,2 | C,2 B,,2 A,,4 | %32
w: Stimm.|Ach|Herr, ver-|nimm; zu|dir ich|schrei, _ _ ich|bitt _ _ _|_ _ ver-|
 G,,8 | z4 G,,4 | G,,4 G,,4 | A,,4 E,4 | E,4 E,4 | A,,4 z2 D,2 | D,2 D,2 E,4 | A,,2 A,2 G,4 | %40
w: ezih|mein|Mis- se-|tat. Ich|bitt um|Gnad und|nicht um Recht,|du bist mein|
 C,2 E,2 D,4 | C,3 B,, G,,A,,B,,C, | D,2 C,4 B,,2 | A,,3 B,, C,D, E,2 | F,2 G,2 A,2 D,2 | %45
w: Herr und ich|dein _ _ _ _ _|_ _ _|Knecht, _ _ _ _|_ _ _ und|
 G,3 F, E,3 D, | C,3 B,, A,,4 | E,8 |] %48
w: ich _ _ _|_ _ dein|Knecht.|

